img/section4-1-tpa.svg

<svg fill="none" height="74" viewBox="0 0 74 74" width="74" xmlns="http://www.w3.org/2000/svg"><g fill="#b5bd00"><path d="m47.8836 33.4042h22.8732v12.685c-.0045.7511-.307 1.4698-.8409 1.9982-.534.5283-1.2558.8231-2.007.8197h-20.0253zm0-9.2847h20.0253c.7505-.0034 1.4716.2909 2.0055.8183.5338.5274.8368 1.245.8424 1.9954v3.3961h-22.8732zm-3.1092 45.8237h-41.66524v-59.7549h8.77924v6.2097h-.7922c-.4078 0-.7988.162-1.0872.4503-.28829.2884-.45028.6794-.45028 1.0872 0 .4077.16199.7988.45028 1.0871.2884.2883.6794.4503 1.0872.4503h25.8368c.4077 0 .7988-.162 1.0871-.4503.2884-.2883.4503-.6794.4503-1.0871 0-.4078-.1619-.7988-.4503-1.0872-.2883-.2883-.6794-.4503-1.0871-.4503h-.7923v-6.2097h8.6337zm-29.7854-66.72267h18.0383v13.17747h-18.0383zm58.8641 42.86867v-19.156c-.0113-1.5701-.6447-3.0717-1.7614-4.1756-1.1167-1.1038-2.6255-1.7198-4.1956-1.713h-20.0125v-12.39804c-.0012-.20303-.0423-.40385-.121-.59099s-.1936-.35694-.3379-.49971c-.1444-.14276-.3154-.2557-.5034-.33235s-.3893-.11553-.5923-.1144h-10.1883v-5.56736c-.0005-.20338-.0412-.40466-.1197-.592298-.0785-.187636-.1932-.357943-.3376-.501162-.1445-.143219-.3157-.256536-.504-.333457-.1883-.0769219-.3899-.11593659-.5933-.11480901h-21.1388c-.4104-.00228164-.805.15828501-1.0972.44649201-.2922.288208-.4583.680534-.4617 1.090954v5.56736h-10.33382c-.20339-.00113-.405.03789-.593277.11481-.188281.07692-.359534.19024-.503947.33345-.144412.14322-.259146.31353-.337628.50117-.0784813.18763-.11916772.38891-.119728.5923v62.83834c.00112168.203.0422221.4038.120955.591.078732.1871.193555.3569.337911.4997.144357.1428.31542.2557.503423.3323.188001.0767.389261.1156.592291.1144h44.77442c.203.0012.4043-.0377.5923-.1144.188-.0766.359-.1895.5034-.3323.1443-.1428.2592-.3126.3379-.4997.0787-.1872.1198-.388.121-.591v-19.5029h20.0253c1.5709.0068 3.0803-.6098 4.1972-1.7145 1.1168-1.1048 1.7497-2.6074 1.7599-4.1783"/><path d="m35.3778 36.1363h-22.7276v-7.3746h22.7276zm1.5546-10.441h-25.8368c-.203-.0011-.4043.0378-.5923.1144-.188.0767-.3591.1896-.50342.3324-.14435.1428-.25918.3126-.33791.4997s-.11983.388-.12095.591v10.4538c.00112.203.04222.4038.12095.591.07873.1871.19356.3569.33791.4997.14432.1427.31542.2557.50342.3323.188.0767.3893.1155.5923.1144h25.8368c.203.0011.4043-.0377.5923-.1144.188-.0766.3591-.1896.5034-.3323.1444-.1428.2592-.3126.3379-.4997.0788-.1872.1199-.388.121-.591v-10.4624c-.0045-.4085-.1706-.7987-.4619-1.0851-.2913-.2865-.6841-.4461-1.0927-.4438"/><path d="m13.4472 45.4199h-2.3512c-.4077 0-.7988.162-1.0871.4503-.28833.2884-.45031.6794-.45031 1.0872 0 .4077.16198.7988.45031 1.0871.2883.2883.6794.4503 1.0871.4503h2.3512c.4077 0 .7988-.162 1.0871-.4503s.4503-.6794.4503-1.0871c0-.4078-.162-.7988-.4503-1.0872-.2883-.2883-.6794-.4503-1.0871-.4503"/><path d="m25.1913 45.4199h-2.3511c-.4078 0-.7988.162-1.0872.4503-.2883.2884-.4503.6794-.4503 1.0872 0 .4077.162.7988.4503 1.0871.2884.2883.6794.4503 1.0872.4503h2.3511c.4078 0 .7988-.162 1.0872-.4503.2883-.2883.4503-.6794.4503-1.0871 0-.4078-.162-.7988-.4503-1.0872-.2884-.2883-.6794-.4503-1.0872-.4503"/><path d="m36.9331 45.4199h-2.3468c-.4078 0-.7988.162-1.0872.4503-.2883.2884-.4503.6794-.4503 1.0872 0 .4077.162.7988.4503 1.0871.2884.2883.6794.4503 1.0872.4503h2.3468c.4078 0 .7988-.162 1.0872-.4503.2883-.2883.4503-.6794.4503-1.0871 0-.4078-.162-.7988-.4503-1.0872-.2884-.2883-.6794-.4503-1.0872-.4503"/><path d="m13.4472 53.5322h-2.3512c-.4077 0-.7988.162-1.0871.4503-.28833.2884-.45031.6794-.45031 1.0872 0 .4077.16198.7988.45031 1.0871.2883.2883.6794.4503 1.0871.4503h2.3512c.4077 0 .7988-.162 1.0871-.4503s.4503-.6794.4503-1.0871c0-.4078-.162-.7988-.4503-1.0872-.2883-.2883-.6794-.4503-1.0871-.4503"/><path d="m25.1913 53.5322h-2.3511c-.4078 0-.7988.162-1.0872.4503-.2883.2884-.4503.6794-.4503 1.0872 0 .4077.162.7988.4503 1.0871.2884.2883.6794.4503 1.0872.4503h2.3511c.4078 0 .7988-.162 1.0872-.4503.2883-.2883.4503-.6794.4503-1.0871 0-.4078-.162-.7988-.4503-1.0872-.2884-.2883-.6794-.4503-1.0872-.4503"/><path d="m36.9331 53.5322h-2.3468c-.4078 0-.7988.162-1.0872.4503-.2883.2884-.4503.6794-.4503 1.0872 0 .4077.162.7988.4503 1.0871.2884.2883.6794.4503 1.0872.4503h2.3468c.4078 0 .7988-.162 1.0872-.4503.2883-.2883.4503-.6794.4503-1.0871 0-.4078-.162-.7988-.4503-1.0872-.2884-.2883-.6794-.4503-1.0872-.4503"/><path d="m13.4472 61.6689h-2.3512c-.4077 0-.7988.162-1.0871.4504-.28833.2883-.45031.6793-.45031 1.0871 0 .4077.16198.7988.45031 1.0871.2883.2884.6794.4503 1.0871.4503h2.3512c.4077 0 .7988-.1619 1.0871-.4503.2883-.2883.4503-.6794.4503-1.0871 0-.4078-.162-.7988-.4503-1.0871-.2883-.2884-.6794-.4504-1.0871-.4504"/><path d="m25.1913 61.6689h-2.3511c-.4078 0-.7988.162-1.0872.4504-.2883.2883-.4503.6793-.4503 1.0871 0 .4077.162.7988.4503 1.0871.2884.2884.6794.4503 1.0872.4503h2.3511c.4078 0 .7988-.1619 1.0872-.4503.2883-.2883.4503-.6794.4503-1.0871 0-.4078-.162-.7988-.4503-1.0871-.2884-.2884-.6794-.4504-1.0872-.4504"/><path d="m36.9331 61.6689h-2.3468c-.4078 0-.7988.162-1.0872.4504-.2883.2883-.4503.6793-.4503 1.0871 0 .4077.162.7988.4503 1.0871.2884.2884.6794.4503 1.0872.4503h2.3468c.4078 0 .7988-.1619 1.0872-.4503.2883-.2883.4503-.6794.4503-1.0871 0-.4078-.162-.7988-.4503-1.0871-.2884-.2884-.6794-.4504-1.0872-.4504"/></g></svg>

<svg width="74" height="74" viewBox="0 0 74 74" fill="none" xmlns="http://www.w3.org/2000/svg">
<path d="M47.8836 33.4042H70.7568V46.0892C70.7523 46.8403 70.4498 47.559 69.9159 48.0874C69.3819 48.6157 68.6601 48.9105 67.9089 48.9071H47.8836V33.4042ZM47.8836 24.1195H67.9089C68.6594 24.1161 69.3805 24.4104 69.9144 24.9378C70.4482 25.4652 70.7512 26.1828 70.7568 26.9332V30.3293H47.8836V24.1195ZM44.7744 69.9432H3.10916V10.1883H11.8884V16.398H11.0962C10.6884 16.398 10.2974 16.56 10.009 16.8483C9.72071 17.1367 9.55872 17.5277 9.55872 17.9355C9.55872 18.3432 9.72071 18.7343 10.009 19.0226C10.2974 19.3109 10.6884 19.4729 11.0962 19.4729H36.933C37.3407 19.4729 37.7318 19.3109 38.0201 19.0226C38.3085 18.7343 38.4704 18.3432 38.4704 17.9355C38.4704 17.5277 38.3085 17.1367 38.0201 16.8483C37.7318 16.56 37.3407 16.398 36.933 16.398H36.1407V10.1883H44.7744V69.9432ZM14.989 3.22053H33.0273V16.398H14.989V3.22053ZM73.8531 46.0892V26.9332C73.8418 25.3631 73.2084 23.8615 72.0917 22.7576C70.975 21.6538 69.4662 21.0378 67.8961 21.0446H47.8836V8.64656C47.8824 8.44353 47.8413 8.24271 47.7626 8.05557C47.6839 7.86843 47.569 7.69863 47.4247 7.55586C47.2803 7.4131 47.1093 7.30016 46.9213 7.22351C46.7333 7.14686 46.532 7.10798 46.329 7.10911H36.1407V1.54175C36.1402 1.33837 36.0995 1.13709 36.021 0.949452C35.9425 0.761816 35.8278 0.591509 35.6834 0.44829C35.5389 0.305071 35.3677 0.191754 35.1794 0.114833C34.9911 0.0379111 34.7895 -0.00110359 34.5861 2.39879e-05H13.4473C13.0369 -0.00225765 12.6423 0.158309 12.3501 0.446516C12.0579 0.734724 11.8918 1.12705 11.8884 1.53747V7.10483H1.55458C1.35119 7.1037 1.14958 7.14272 0.961303 7.21964C0.773022 7.29656 0.601769 7.40988 0.457356 7.55309C0.312944 7.69631 0.19821 7.86662 0.119728 8.05426C0.0412467 8.24189 0.000560276 8.44317 0 8.64656L0 71.4849C0.00112168 71.6879 0.0422221 71.8887 0.120955 72.0759C0.199687 72.263 0.31451 72.4328 0.458866 72.5756C0.603223 72.7184 0.774286 72.8313 0.962289 72.9079C1.15029 72.9846 1.35155 73.0235 1.55458 73.0223H46.329C46.532 73.0235 46.7333 72.9846 46.9213 72.9079C47.1093 72.8313 47.2803 72.7184 47.4247 72.5756C47.569 72.4328 47.6839 72.263 47.7626 72.0759C47.8413 71.8887 47.8824 71.6879 47.8836 71.4849V51.982H67.9089C69.4798 51.9888 70.9892 51.3722 72.1061 50.2675C73.2229 49.1627 73.8558 47.6601 73.866 46.0892" fill="#B5BD00"/>
<path d="M35.3778 36.1363H12.6502V28.7617H35.3778V36.1363ZM36.9324 25.6953H11.0956C10.8926 25.6942 10.6913 25.7331 10.5033 25.8097C10.3153 25.8864 10.1442 25.9993 9.99988 26.1421C9.85553 26.2849 9.7407 26.4547 9.66197 26.6418C9.58324 26.8289 9.54214 27.0298 9.54102 27.2328V37.6866C9.54214 37.8896 9.58324 38.0904 9.66197 38.2776C9.7407 38.4647 9.85553 38.6345 9.99988 38.7773C10.1442 38.92 10.3153 39.033 10.5033 39.1096C10.6913 39.1863 10.8926 39.2251 11.0956 39.224H36.9324C37.1354 39.2251 37.3367 39.1863 37.5247 39.1096C37.7127 39.033 37.8838 38.92 38.0281 38.7773C38.1725 38.6345 38.2873 38.4647 38.366 38.2776C38.4448 38.0904 38.4859 37.8896 38.487 37.6866V27.2242C38.4825 26.8157 38.3164 26.4255 38.0251 26.1391C37.7338 25.8526 37.341 25.693 36.9324 25.6953" fill="#B5BD00"/>
<path d="M13.4472 45.4199H11.096C10.6883 45.4199 10.2972 45.5819 10.0089 45.8702C9.72057 46.1586 9.55859 46.5496 9.55859 46.9574C9.55859 47.3651 9.72057 47.7562 10.0089 48.0445C10.2972 48.3328 10.6883 48.4948 11.096 48.4948H13.4472C13.8549 48.4948 14.246 48.3328 14.5343 48.0445C14.8226 47.7562 14.9846 47.3651 14.9846 46.9574C14.9846 46.5496 14.8226 46.1586 14.5343 45.8702C14.246 45.5819 13.8549 45.4199 13.4472 45.4199" fill="#B5BD00"/>
<path d="M25.1913 45.4199H22.8402C22.4324 45.4199 22.0414 45.5819 21.753 45.8702C21.4647 46.1586 21.3027 46.5496 21.3027 46.9574C21.3027 47.3651 21.4647 47.7562 21.753 48.0445C22.0414 48.3328 22.4324 48.4948 22.8402 48.4948H25.1913C25.5991 48.4948 25.9901 48.3328 26.2785 48.0445C26.5668 47.7562 26.7288 47.3651 26.7288 46.9574C26.7288 46.5496 26.5668 46.1586 26.2785 45.8702C25.9901 45.5819 25.5991 45.4199 25.1913 45.4199" fill="#B5BD00"/>
<path d="M36.9331 45.4199H34.5863C34.1785 45.4199 33.7875 45.5819 33.4991 45.8702C33.2108 46.1586 33.0488 46.5496 33.0488 46.9574C33.0488 47.3651 33.2108 47.7562 33.4991 48.0445C33.7875 48.3328 34.1785 48.4948 34.5863 48.4948H36.9331C37.3409 48.4948 37.7319 48.3328 38.0203 48.0445C38.3086 47.7562 38.4706 47.3651 38.4706 46.9574C38.4706 46.5496 38.3086 46.1586 38.0203 45.8702C37.7319 45.5819 37.3409 45.4199 36.9331 45.4199" fill="#B5BD00"/>
<path d="M13.4472 53.5322H11.096C10.6883 53.5322 10.2972 53.6942 10.0089 53.9825C9.72057 54.2709 9.55859 54.6619 9.55859 55.0697C9.55859 55.4774 9.72057 55.8685 10.0089 56.1568C10.2972 56.4451 10.6883 56.6071 11.096 56.6071H13.4472C13.8549 56.6071 14.246 56.4451 14.5343 56.1568C14.8226 55.8685 14.9846 55.4774 14.9846 55.0697C14.9846 54.6619 14.8226 54.2709 14.5343 53.9825C14.246 53.6942 13.8549 53.5322 13.4472 53.5322" fill="#B5BD00"/>
<path d="M25.1913 53.5322H22.8402C22.4324 53.5322 22.0414 53.6942 21.753 53.9825C21.4647 54.2709 21.3027 54.6619 21.3027 55.0697C21.3027 55.4774 21.4647 55.8685 21.753 56.1568C22.0414 56.4451 22.4324 56.6071 22.8402 56.6071H25.1913C25.5991 56.6071 25.9901 56.4451 26.2785 56.1568C26.5668 55.8685 26.7288 55.4774 26.7288 55.0697C26.7288 54.6619 26.5668 54.2709 26.2785 53.9825C25.9901 53.6942 25.5991 53.5322 25.1913 53.5322" fill="#B5BD00"/>
<path d="M36.9331 53.5322H34.5863C34.1785 53.5322 33.7875 53.6942 33.4991 53.9825C33.2108 54.2709 33.0488 54.6619 33.0488 55.0697C33.0488 55.4774 33.2108 55.8685 33.4991 56.1568C33.7875 56.4451 34.1785 56.6071 34.5863 56.6071H36.9331C37.3409 56.6071 37.7319 56.4451 38.0203 56.1568C38.3086 55.8685 38.4706 55.4774 38.4706 55.0697C38.4706 54.6619 38.3086 54.2709 38.0203 53.9825C37.7319 53.6942 37.3409 53.5322 36.9331 53.5322" fill="#B5BD00"/>
<path d="M13.4472 61.6689H11.096C10.6883 61.6689 10.2972 61.8309 10.0089 62.1193C9.72057 62.4076 9.55859 62.7986 9.55859 63.2064C9.55859 63.6141 9.72057 64.0052 10.0089 64.2935C10.2972 64.5819 10.6883 64.7438 11.096 64.7438H13.4472C13.8549 64.7438 14.246 64.5819 14.5343 64.2935C14.8226 64.0052 14.9846 63.6141 14.9846 63.2064C14.9846 62.7986 14.8226 62.4076 14.5343 62.1193C14.246 61.8309 13.8549 61.6689 13.4472 61.6689" fill="#B5BD00"/>
<path d="M25.1913 61.6689H22.8402C22.4324 61.6689 22.0414 61.8309 21.753 62.1193C21.4647 62.4076 21.3027 62.7986 21.3027 63.2064C21.3027 63.6141 21.4647 64.0052 21.753 64.2935C22.0414 64.5819 22.4324 64.7438 22.8402 64.7438H25.1913C25.5991 64.7438 25.9901 64.5819 26.2785 64.2935C26.5668 64.0052 26.7288 63.6141 26.7288 63.2064C26.7288 62.7986 26.5668 62.4076 26.2785 62.1193C25.9901 61.8309 25.5991 61.6689 25.1913 61.6689" fill="#B5BD00"/>
<path d="M36.9331 61.6689H34.5863C34.1785 61.6689 33.7875 61.8309 33.4991 62.1193C33.2108 62.4076 33.0488 62.7986 33.0488 63.2064C33.0488 63.6141 33.2108 64.0052 33.4991 64.2935C33.7875 64.5819 34.1785 64.7438 34.5863 64.7438H36.9331C37.3409 64.7438 37.7319 64.5819 38.0203 64.2935C38.3086 64.0052 38.4706 63.6141 38.4706 63.2064C38.4706 62.7986 38.3086 62.4076 38.0203 62.1193C37.7319 61.8309 37.3409 61.6689 36.9331 61.6689" fill="#B5BD00"/>
</svg>
